**harmony	**harte	**kern	**silbe	**kern	**silbe	**kern	**silbe	**rhyme	**timestamp	**phrase	**leadinstrument
*M4/4	*M4/4	*ICvox	*	*ICvox	*	*ICvox	*	*	*	*	*
*	*	*VRlead*VRharmonize*VRbacking	*	*VRharmonize*VRbacking	*	*VRharmonize*VRbacking	*	*	*	*	*
*	*	*Hstimme	*	*Nstimme	*	*Nstimme	*	*	*	*	*
*C:	*C:	*C:	*	*C:	*	*C:	*	*	*	*	*
*	*	*M4/4	*	*M4/4	*	*M4/4	*	*	*	*	*
*	*	*clefG2	*	*clefG2	*	*clefG2	*	*	*	*	*
1r	1r	r;	.	r;	.	r;	.	.	0	.	r
=1	=1	=1	=1	=1	=1	=1	=1	=1	=1	=1	=1
*>Letter>A	*>Letter>A	*>Letter>A	*>Letter>A	*>Letter>A	*>Letter>A	*>Letter>A	*>Letter>A	*>Letter>A	*>Letter>A	*>Letter>A	*>Letter>A
*>Label>Intro	*>Label>Intro	*>Label>Intro	*>Label>Intro	*>Label>Intro	*>Label>Intro	*>Label>Intro	*>Label>Intro	*>Label>Intro	*>Label>Intro	*>Label>Intro	*>Label>Intro
1CM	C:maj	[4g	Doo	[4e	Doo	1r	.	.	0.325	newline	voice
.	.	8g]	_	8e]	_	.	.	.	.	.	.
.	.	8e	doo	8c	doo	.	.	.	.	.	.
.	.	8g	doo	8e	doo	.	.	.	.	.	.
.	.	8cc	doo	8e	doo	.	.	.	.	.	.
.	.	8r	.	8r	.	.	.	.	.	.	.
.	.	8dd	doo	8f	doo	.	.	.	.	.	.
=2	=2	=2	=2	=2	=2	=2	=2	=2	=2	=2	=2
1GMm	G:7	8r	.	8r	.	1r	.	.	2.343	.	voice
.	.	8dd	doo	8f	doo	.	.	.	.	.	.
.	.	8r	.	8r	.	.	.	.	.	.	.
.	.	8cc	doo	8f	doo	.	.	.	.	.	.
.	.	4b	doo	4g	doo	.	.	.	.	.	.
.	.	8.a	doo	8.f	doo	.	.	.	.	.	.
.	.	16r	.	16r	.	.	.	.	.	.	.
=3	=3	=3	=3	=3	=3	=3	=3	=3	=3	=3	=3
1CM	C:maj	[4g	doo	[4e	doo	1r	.	.	4.361	.	voice
.	.	8g]	_	8e]	_	.	.	.	.	.	.
.	.	8e	doo	8c	doo	.	.	.	.	.	.
.	.	8g	doo	8e	doo	.	.	.	.	.	.
.	.	8cc	doo	8e	doo	.	.	.	.	.	.
.	.	8r	.	8r	.	.	.	.	.	.	.
.	.	8dd	doo	8f	doo	.	.	.	.	.	.
=4	=4	=4	=4	=4	=4	=4	=4	=4	=4	=4	=4
1GMm	G:7	8r	.	8r	.	1r	.	.	6.38	.	voice
.	.	8dd	doo	8f	doo	.	.	.	.	.	.
.	.	8r	.	8r	.	.	.	.	.	.	.
.	.	8cc	doo	8f	doo	.	.	.	.	.	.
.	.	4b	doo	4g	doo	.	.	.	.	.	.
.	.	8.a	doo	8.f	doo	.	.	.	.	.	.
.	.	16r	.	16r	.	.	.	.	.	.	.
=5	=5	=5	=5	=5	=5	=5	=5	=5	=5	=5	=5
1CM	C:maj	4r	.	[4g	Doo	[4e	Doo	.	8.398	newline	voice
.	.	4g	Hey	8g]	_	8e]	_	.	.	.	.
.	.	.	.	8e	doo	8c	doo	.	.	.	.
.	.	8cc	Carr-	8g	doo	8e	doo	.	.	.	.
.	.	4g	-ie	8cc	doo	8e	doo	.	.	.	.
.	.	.	.	8r	.	8r	.	.	.	.	.
.	.	[8b	Anne	8dd	doo	8f	doo	.	.	.	.
=6	=6	=6	=6	=6	=6	=6	=6	=6	=6	=6	=6
1GMm	G:7	8b]	_	8r	.	8r	.	.	10.37	.	voice
.	.	4a	_	8dd	doo	8f	doo	.	.	.	.
.	.	.	.	8r	.	8r	.	.	.	.	.
.	.	4g	_	8cc	doo	8f	doo	.	.	.	.
.	.	.	.	4b	doo	4g	doo	.	.	.	.
.	.	4.a	_	.	.	.	.	.	.	.	.
.	.	.	.	8.a	doo	8.f	doo	.	.	.	.
.	.	.	.	16r	.	16r	.	.	.	.	.
=7	=7	=7	=7	=7	=7	=7	=7	=7	=7	=7	=7
1CM	C:maj	4r	.	[4g	doo	[4e	doo	.	12.343	.	voice
.	.	4g	Hey	8g]	_	8e]	_	.	.	.	.
.	.	.	.	8e	doo	8c	doo	.	.	.	.
.	.	8cc	Carr-	8g	doo	8e	doo	.	.	.	.
.	.	4g	-ie	8cc	doo	8e	doo	.	.	.	.
.	.	.	.	8r	.	8r	.	.	.	.	.
.	.	[8b	Anne	8dd	doo	8f	doo	.	.	.	.
=8	=8	=8	=8	=8	=8	=8	=8	=8	=8	=8	=8
1GMm	G:7	8b]	_	8r	.	8r	.	.	14.316	.	voice
.	.	4a	_	8dd	doo	8f	doo	.	.	.	.
.	.	.	.	8r	.	8r	.	.	.	.	.
.	.	4g	_	8cc	doo	8f	doo	.	.	.	.
.	.	.	.	4b	doo	4g	doo	.	.	.	.
.	.	4.a	_	.	.	.	.	.	.	.	.
.	.	.	.	8.a	doo	8.f	doo	.	.	.	.
.	.	.	.	16r	.	16r	.	.	.	.	.
=9	=9	=9	=9	=9	=9	=9	=9	=9	=9	=9	=9
*>Letter>B	*>Letter>B	*>Letter>B	*>Letter>B	*>Letter>B	*>Letter>B	*>Letter>B	*>Letter>B	*>Letter>B	*>Letter>B	*>Letter>B	*>Letter>B
*>Label>Verse	*>Label>Verse	*>Label>Verse	*>Label>Verse	*>Label>Verse	*>Label>Verse	*>Label>Verse	*>Label>Verse	*>Label>Verse	*>Label>Verse	*>Label>Verse	*>Label>Verse
2CM	C:maj	8g	When	1r	.	1r	.	.	16.289	newline	voice
.	.	8g	we	.	.	.	.	.	.	.	.
.	.	8f	were	.	.	.	.	.	.	.	.
.	.	8e	at	.	.	.	.	.	.	.	.
2FM	F:maj	4d	school	.	.	.	.	.	17.275	.	voice
.	.	4c	our	.	.	.	.	.	.	.	.
=10	=10	=10	=10	=10	=10	=10	=10	=10	=10	=10	=10
2CM	C:maj	4G	games	1r	.	1r	.	.	18.262	.	voice
.	.	4c	were	.	.	.	.	.	.	.	.
2FM	F:maj	4A	sim-	.	.	.	.	.	19.248	.	voice
.	.	8c	-ple	.	.	.	.	.	.	.	.
.	.	8r	.	.	.	.	.	.	.	.	.
=11	=11	=11	=11	=11	=11	=11	=11	=11	=11	=11	=11
2CM	C:maj	4G	I	1r	.	1r	.	.	20.235	.	voice
.	.	8A	played	.	.	.	.	.	.	.	.
.	.	8c	a	.	.	.	.	.	.	.	.
2FM	F:maj	8e	jan-	.	.	.	.	.	21.221	.	voice
.	.	8e	-i-	.	.	.	.	(a	.	.	.
.	.	8d	-tor	.	.	.	.	A)	.	.	.
.	.	8r	.	.	.	.	.	.	.	.	.
=12	=12	=12	=12	=12	=12	=12	=12	=12	=12	=12	=12
2CM	C:maj	4G	you	1r	.	1r	.	.	22.208	.	voice
.	.	8A	played	.	.	.	.	.	.	.	.
.	.	8c	a	.	.	.	.	.	.	.	.
2FM	F:maj	8A	mon-	.	.	.	.	.	23.195	.	voice
.	.	8A	-i-	.	.	.	.	(a	.	.	.
.	.	8G	-tor	.	.	.	.	A)	.	.	.
.	.	8r	.	.	.	.	.	.	.	.	.
=13	=13	=13	=13	=13	=13	=13	=13	=13	=13	=13	=13
2CM	C:maj	8g	Then	1r	.	1r	.	.	24.181	newline	voice
.	.	8g	you	.	.	.	.	.	.	.	.
.	.	8f	played	.	.	.	.	.	.	.	.
.	.	8e	with	.	.	.	.	.	.	.	.
2FM	F:maj	4d	old-	.	.	.	.	.	25.171	.	voice
.	.	4c	-er	.	.	.	.	.	.	.	.
=14	=14	=14	=14	=14	=14	=14	=14	=14	=14	=14	=14
2CM	C:maj	4G	boys	1r	.	1r	.	.	26.162	.	voice
.	.	4c	and	.	.	.	.	.	.	.	.
2FM	F:maj	4A	pre-	.	.	.	.	.	27.152	.	voice
.	.	8c	-fects	.	.	.	.	.	.	.	.
.	.	8r	.	.	.	.	.	.	.	.	.
=15	=15	=15	=15	=15	=15	=15	=15	=15	=15	=15	=15
2CM	C:maj	4G	what's	1r	.	1r	.	.	28.142	.	voice
.	.	8A	the	.	.	.	.	.	.	.	.
.	.	8c	a-	.	.	.	.	.	.	.	.
2FM	F:maj	4e	-ttrac-	.	.	.	.	.	29.132	.	voice
.	.	8d	-tion	.	.	.	.	.	.	.	.
.	.	8d	in	.	.	.	.	.	.	.	.
=16	=16	=16	=16	=16	=16	=16	=16	=16	=16	=16	=16
1GM	G:maj	4c	what	1r	.	1r	.	.	30.122	.	voice
.	.	4B	they're	.	.	.	.	.	.	.	.
.	.	16A	do-	.	.	.	.	.	.	.	.
.	.	8.G	_	.	.	.	.	.	.	.	.
.	.	4G	-ing	.	.	.	.	.	.	.	.
=17	=17	=17	=17	=17	=17	=17	=17	=17	=17	=17	=17
*>Letter>C	*>Letter>C	*>Letter>C	*>Letter>C	*>Letter>C	*>Letter>C	*>Letter>C	*>Letter>C	*>Letter>C	*>Letter>C	*>Letter>C	*>Letter>C
*>Label>Chorus	*>Label>Chorus	*>Label>Chorus	*>Label>Chorus	*>Label>Chorus	*>Label>Chorus	*>Label>Chorus	*>Label>Chorus	*>Label>Chorus	*>Label>Chorus	*>Label>Chorus	*>Label>Chorus
2CM	C:maj	2g	Hey	2cc	Hey	2c	Hey	B	32.102	newline	voice
2FM	F:maj	8f	Carr-	8cc	Carr-	8d	Carr-	.	33.11	.	voice
.	.	4e	-ie	4g	-ie	4e	-ie	.	.	.	.
.	.	[8d	Anne	[8g	Anne	[8d	Anne	.	.	.	.
=18	=18	=18	=18	=18	=18	=18	=18	=18	=18	=18	=18
1GMm	G:7	8d]	_	8g]	_	8d]	_	.	34.117	.	voice
.	.	4e	_	4a	_	4B	_	.	.	.	.
.	.	8r	.	8r	.	8r	.	.	.	.	.
.	.	8d	what's	8d	what's	8A	what's	.	.	.	.
.	.	4e	your	4e	your	4B	your	.	.	.	.
.	.	16c	game	16g	game	16B	game	B	.	.	.
.	.	16A	_	16f	_	16A	_	.	.	.	.
=19	=19	=19	=19	=19	=19	=19	=19	=19	=19	=19	=19
2CM	C:maj	[16G	_	[16e	_	[16G	_	.	36.132	.	voice
.	.	8G]	_	8e]	_	8G]	_	.	.	.	.
.	.	[8G	now	[8e	now	[8G	now	.	.	.	.
.	.	16G]	_	16e]	_	16G]	_	.	.	.	.
.	.	8G	can	8e	can	8G	can	.	.	.	.
2FM	F:maj	8.A	a-	8.f	a-	8.A	a-	.	37.139	.	voice
.	.	16G	-ny-	16e	-ny-	16G	-ny-	.	.	.	.
.	.	16F	-bo-	16d	-bo-	16B	-bo-	.	.	.	.
.	.	16E	-dy	16c	-dy	16c	-dy	.	.	.	.
.	.	[8G	play	[8g	play	[8B	play	B	.	.	.
=20	=20	=20	=20	=20	=20	=20	=20	=20	=20	=20	=20
1GMm	G:7	2G_	_	2g_	_	2B_	_	.	38.146	.	voice
.	.	4G]	_	4g]	_	4B]	_	.	.	.	.
.	.	4r	.	4r	.	4r	.	.	.	.	.
=21	=21	=21	=21	=21	=21	=21	=21	=21	=21	=21	=21
2CM	C:maj	2g	Hey	2cc	Hey	2c	Hey	B	40.161	newline	voice
2FM	F:maj	8f	Carr-	8cc	Carr-	8d	Carr-	.	41.169	.	voice
.	.	4e	-ie	4g	-ie	4e	-ie	.	.	.	.
.	.	[8d	Anne	[8g	Anne	[8d	Anne	.	.	.	.
=22	=22	=22	=22	=22	=22	=22	=22	=22	=22	=22	=22
1GMm	G:7	8d]	_	8g]	_	8d]	_	.	42.177	.	voice
.	.	4e	_	4a	_	4B	_	.	.	.	.
.	.	8r	.	8r	.	8r	.	.	.	.	.
.	.	8d	what's	8d	what's	8A	what's	.	.	.	.
.	.	4e	your	4e	your	4B	your	.	.	.	.
.	.	16c	game	16g	game	16B	game	B	.	.	.
.	.	16A	_	16f	_	16A	_	.	.	.	.
=23	=23	=23	=23	=23	=23	=23	=23	=23	=23	=23	=23
2CM	C:maj	[16G	_	[16e	_	[16G	_	.	44.193	.	voice
.	.	8G]	_	8e]	_	8G]	_	.	.	.	.
.	.	[8G	now	[8e	now	[8G	now	.	.	.	.
.	.	16G]	_	16e]	_	16G]	_	.	.	.	.
.	.	8G	can	8e	can	8G	can	.	.	.	.
2FM	F:maj	8.A	a-	8.f	a-	8.A	a-	.	45.201	.	voice
.	.	16G	-ny-	16e	-ny-	16G	-ny-	.	.	.	.
.	.	16F	-bo-	16d	-bo-	16B	-bo-	.	.	.	.
.	.	16E	-dy	16c	-dy	16c	-dy	.	.	.	.
.	.	[8G	play	[8g	play	[8B	play	B	.	.	.
=24	=24	=24	=24	=24	=24	=24	=24	=24	=24	=24	=24
1GMm	G:7	1G]	_	1g]	_	1B]	_	.	46.209	.	voice
=25	=25	=25	=25	=25	=25	=25	=25	=25	=25	=25	=25
*>Letter>B	*>Letter>B	*>Letter>B	*>Letter>B	*>Letter>B	*>Letter>B	*>Letter>B	*>Letter>B	*>Letter>B	*>Letter>B	*>Letter>B	*>Letter>B
*>Label>Verse	*>Label>Verse	*>Label>Verse	*>Label>Verse	*>Label>Verse	*>Label>Verse	*>Label>Verse	*>Label>Verse	*>Label>Verse	*>Label>Verse	*>Label>Verse	*>Label>Verse
2CM	C:maj	8g	You	1r	.	1r	.	.	48.225	newline	voice
.	.	8g	were	.	.	.	.	.	.	.	.
.	.	8f	al-	.	.	.	.	.	.	.	.
.	.	8e	-ways	.	.	.	.	.	.	.	.
2FM	F:maj	4d	some-	.	.	.	.	.	49.222	.	voice
.	.	4c	-thing	.	.	.	.	.	.	.	.
=26	=26	=26	=26	=26	=26	=26	=26	=26	=26	=26	=26
2CM	C:maj	4G	spe-	1r	.	1r	.	.	50.219	.	voice
.	.	4c	-cial	.	.	.	.	.	.	.	.
2FM	F:maj	4A	to	.	.	.	.	.	51.216	.	voice
.	.	8c	me	.	.	.	.	.	.	.	.
.	.	8r	.	.	.	.	.	.	.	.	.
=27	=27	=27	=27	=27	=27	=27	=27	=27	=27	=27	=27
2CM	C:maj	4G	quite	1r	.	1r	.	.	52.213	.	voice
.	.	8A	in-	.	.	.	.	.	.	.	.
.	.	8c	-de-	.	.	.	.	.	.	.	.
2FM	F:maj	4e	-pen-	.	.	.	.	.	53.21	.	voice
.	.	8d	-dent	.	.	.	.	.	.	.	.
.	.	8r	.	.	.	.	.	.	.	.	.
=28	=28	=28	=28	=28	=28	=28	=28	=28	=28	=28	=28
2CM	C:maj	4r	.	1r	.	1r	.	.	54.207	.	voice
.	.	8A	ne-	.	.	.	.	.	.	.	.
.	.	8c	-ver	.	.	.	.	.	.	.	.
2FM	F:maj	8A	car-	.	.	.	.	.	55.204	.	voice
.	.	8G	_	.	.	.	.	.	.	.	.
.	.	8G	-ing	.	.	.	.	.	.	.	.
.	.	8r	.	.	.	.	.	.	.	.	.
=29	=29	=29	=29	=29	=29	=29	=29	=29	=29	=29	=29
2CM	C:maj	4g	You	1r	.	1r	.	.	56.201	newline	voice
.	.	8f	lost	.	.	.	.	.	.	.	.
.	.	8e	your	.	.	.	.	.	.	.	.
2FM	F:maj	4d	charm	.	.	.	.	.	57.203	.	voice
.	.	4c	as	.	.	.	.	.	.	.	.
=30	=30	=30	=30	=30	=30	=30	=30	=30	=30	=30	=30
2CM	C:maj	4G	you	1r	.	1r	.	.	58.204	.	voice
.	.	4c	were	.	.	.	.	.	.	.	.
2FM	F:maj	4A	ag-	.	.	.	.	.	59.206	.	voice
.	.	8c	-ing	.	.	.	.	.	.	.	.
.	.	8r	.	.	.	.	.	.	.	.	.
=31	=31	=31	=31	=31	=31	=31	=31	=31	=31	=31	=31
2CM	C:maj	4G	where	1r	.	1r	.	.	60.208	.	voice
.	.	8A	is	.	.	.	.	.	.	.	.
.	.	8c	your	.	.	.	.	.	.	.	.
2FM	F:maj	4e	ma-	.	.	.	.	.	61.209	.	voice
.	.	4d	-gic	.	.	.	.	.	.	.	.
=32	=32	=32	=32	=32	=32	=32	=32	=32	=32	=32	=32
1GM	G:maj	4c	dis-	1r	.	1r	.	.	62.211	.	voice
.	.	4B	-a-	.	.	.	.	.	.	.	.
.	.	16A	-pear-	.	.	.	.	.	.	.	.
.	.	8.G	_	.	.	.	.	.	.	.	.
.	.	4G	-ing	.	.	.	.	.	.	.	.
=33	=33	=33	=33	=33	=33	=33	=33	=33	=33	=33	=33
*>Letter>C	*>Letter>C	*>Letter>C	*>Letter>C	*>Letter>C	*>Letter>C	*>Letter>C	*>Letter>C	*>Letter>C	*>Letter>C	*>Letter>C	*>Letter>C
*>Label>Chorus	*>Label>Chorus	*>Label>Chorus	*>Label>Chorus	*>Label>Chorus	*>Label>Chorus	*>Label>Chorus	*>Label>Chorus	*>Label>Chorus	*>Label>Chorus	*>Label>Chorus	*>Label>Chorus
2CM	C:maj	2g	Hey	2cc	Hey	2c	Hey	B	64.214	newline	voice
2FM	F:maj	8f	Carr-	8cc	Carr-	8d	Carr-	.	65.231	.	voice
.	.	4e	-ie	4g	-ie	4e	-ie	.	.	.	.
.	.	[8d	Anne	[8g	Anne	[8d	Anne	.	.	.	.
=34	=34	=34	=34	=34	=34	=34	=34	=34	=34	=34	=34
1GMm	G:7	8d]	_	8g]	_	8d]	_	.	66.248	.	voice
.	.	4e	_	4a	_	4B	_	.	.	.	.
.	.	8r	.	8r	.	8r	.	.	.	.	.
.	.	8d	what's	8d	what's	8A	what's	.	.	.	.
.	.	4e	your	4e	your	4B	your	.	.	.	.
.	.	16c	game	16g	game	16B	game	B	.	.	.
.	.	16A	_	16f	_	16A	_	.	.	.	.
=35	=35	=35	=35	=35	=35	=35	=35	=35	=35	=35	=35
2CM	C:maj	[16G	_	[16e	_	[16G	_	.	68.281	.	voice
.	.	8G]	_	8e]	_	8G]	_	.	.	.	.
.	.	[8G	now	[8e	now	[8G	now	.	.	.	.
.	.	16G]	_	16e]	_	16G]	_	.	.	.	.
.	.	8G	can	8e	can	8G	can	.	.	.	.
2FM	F:maj	8.A	a-	8.f	a-	8.A	a-	.	69.298	.	voice
.	.	16G	-ny-	16e	-ny-	16G	-ny-	.	.	.	.
.	.	16F	-bo-	16d	-bo-	16B	-bo-	.	.	.	.
.	.	16E	-dy	16c	-dy	16c	-dy	.	.	.	.
.	.	[8G	play	[8g	play	[8B	play	B	.	.	.
=36	=36	=36	=36	=36	=36	=36	=36	=36	=36	=36	=36
1GMm	G:7	2G_	_	2g_	_	2B_	_	.	70.314	.	voice
.	.	4G]	_	4g]	_	4B]	_	.	.	.	.
.	.	4r	.	4r	.	4r	.	.	.	.	.
=37	=37	=37	=37	=37	=37	=37	=37	=37	=37	=37	=37
2CM	C:maj	2g	Hey	2cc	Hey	2c	Hey	B	72.347	newline	voice
2FM	F:maj	8f	Carr-	8cc	Carr-	8d	Carr-	.	73.36	.	voice
.	.	4e	-ie	4g	-ie	4e	-ie	.	.	.	.
.	.	[8d	Anne	[8g	Anne	[8d	Anne	.	.	.	.
=38	=38	=38	=38	=38	=38	=38	=38	=38	=38	=38	=38
1GMm	G:7	8d]	_	8g]	_	8d]	_	.	74.373	.	voice
.	.	4e	_	4a	_	4B	_	.	.	.	.
.	.	8r	.	8r	.	8r	.	.	.	.	.
.	.	8d	what's	8d	what's	8A	what's	.	.	.	.
.	.	4e	your	4e	your	4B	your	.	.	.	.
.	.	16c	game	16g	game	16B	game	B	.	.	.
.	.	16A	_	16f	_	16A	_	.	.	.	.
=39	=39	=39	=39	=39	=39	=39	=39	=39	=39	=39	=39
2CM	C:maj	[16G	_	[16e	_	[16G	_	.	76.398	.	voice
.	.	8G]	_	8e]	_	8G]	_	.	.	.	.
.	.	[8G	now	[8e	now	[8G	now	.	.	.	.
.	.	16G]	_	16e]	_	16G]	_	.	.	.	.
.	.	8G	can	8e	can	8G	can	.	.	.	.
2FM	F:maj	8.A	a-	8.f	a-	8.A	a-	.	77.411	.	voice
.	.	16G	-ny-	16e	-ny-	16G	-ny-	.	.	.	.
.	.	16F	-bo-	16d	-bo-	16B	-bo-	.	.	.	.
.	.	16E	-dy	16c	-dy	16c	-dy	.	.	.	.
.	.	[8G	play	[8g	play	[8B	play	B	.	.	.
=40	=40	=40	=40	=40	=40	=40	=40	=40	=40	=40	=40
1GMm	G:7	2G_	_	2.g]	_	2.B]	_	.	78.423	.	voice
.	.	4G]	_	.	.	.	.	.	.	.	.
.	.	8g	You're	4r	.	4r	.	.	.	.	.
.	.	[8a	so	.	.	.	.	.	.	.	.
=41	=41	=41	=41	=41	=41	=41	=41	=41	=41	=41	=41
*>Letter>D	*>Letter>D	*>Letter>D	*>Letter>D	*>Letter>D	*>Letter>D	*>Letter>D	*>Letter>D	*>Letter>D	*>Letter>D	*>Letter>D	*>Letter>D
*>Label>Bridge	*>Label>Bridge	*>Label>Bridge	*>Label>Bridge	*>Label>Bridge	*>Label>Bridge	*>Label>Bridge	*>Label>Bridge	*>Label>Bridge	*>Label>Bridge	*>Label>Bridge	*>Label>Bridge
1FM	F:maj	8a_	_	1r	.	1r	.	.	80.448	newline	voice
.	.	16a]	_	.	.	.	.	.	.	.	.
.	.	16r	.	.	.	.	.	.	.	.	.
.	.	8r	.	.	.	.	.	.	.	.	.
.	.	2r	.	.	.	.	.	.	.	.	.
.	.	[8a	so	.	.	.	.	.	.	.	.
=42	=42	=42	=42	=42	=42	=42	=42	=42	=42	=42	=42
1FM	F:maj	4a]	_	1r	.	1r	.	.	82.473	.	voice
.	.	8g	like	.	.	.	.	.	.	.	.
.	.	8f	a	.	.	.	.	.	.	.	.
.	.	8e	wo-	.	.	.	.	.	.	.	.
.	.	8d	-man	.	.	.	.	.	.	.	.
.	.	8e	to	.	.	.	.	.	.	.	.
.	.	[8f	me	.	.	.	.	.	.	.	.
=43	=43	=43	=43	=43	=43	=43	=43	=43	=43	=43	=43
1B-M	B-:maj	1f_	_	8r	.	8r	.	.	84.497	.	voice
.	.	.	.	8b-	so	8f	so	.	.	.	.
.	.	.	.	8b-	like	8f	like	.	.	.	.
.	.	.	.	8b-	a	8f	a	.	.	.	.
.	.	.	.	8b-	wo-	8f	wo-	.	.	.	.
.	.	.	.	8a	-man	8f	-man	.	.	.	.
.	.	.	.	8g	to	8e	to	.	.	.	.
.	.	.	.	[8cc	me	[8f	me	.	.	.	.
=44	=44	=44	=44	=44	=44	=44	=44	=44	=44	=44	=44
1FM	F:maj	2.f]	_	2.cc]	_	2.f]	_	.	86.521	.	voice
.	.	8r	.	4r	.	4r	.	.	.	.	.
.	.	[8a	So	.	.	.	.	.	.	.	.
=45	=45	=45	=45	=45	=45	=45	=45	=45	=45	=45	=45
1FM	F:maj	8a]	_	4r	.	4r	.	.	88.545	newline	voice
.	.	4r	.	.	.	.	.	.	.	.	.
.	.	.	.	4a	so	4f	so	.	.	.	.
.	.	2r	.	.	.	.	.	.	.	.	.
.	.	.	.	2r	.	2r	.	.	.	.	.
.	.	[8a	so	.	.	.	.	.	.	.	.
=46	=46	=46	=46	=46	=46	=46	=46	=46	=46	=46	=46
1FM	F:maj	4a]	_	4r	.	4r	.	.	90.54	.	voice
.	.	8g	like	4a	so	4f	so	.	.	.	.
.	.	8f	a	.	.	.	.	.	.	.	.
.	.	8e	wo-	2r	.	2r	.	.	.	.	.
.	.	8d	-man	.	.	.	.	.	.	.	.
.	.	8e	to	.	.	.	.	.	.	.	.
.	.	[8f	me	.	.	.	.	.	.	.	.
=47	=47	=47	=47	=47	=47	=47	=47	=47	=47	=47	=47
1B-M	B-:maj	1f]	_	4r	.	4r	.	.	92.534	.	voice
.	.	.	.	8b-	like	8f	like	.	.	.	.
.	.	.	.	8b-	a	8f	a	.	.	.	.
.	.	.	.	8b-	wo-	8f	wo-	.	.	.	.
.	.	.	.	8a	-man	8f	-man	.	.	.	.
.	.	.	.	8g	to	8f	to	.	.	.	.
.	.	.	.	[8cc	me	[8e	me	.	.	.	.
=48	=48	=48	=48	=48	=48	=48	=48	=48	=48	=48	=48
1GM	G:maj	[1g	_	4.cc]	_	8e_	_	.	94.529	.	voice
.	.	.	.	.	.	2.e]	_	.	.	.	.
.	.	.	.	2b	_	.	.	.	.	.	.
.	.	.	.	[8a	_	[8c	_	.	.	.	.
=49	=49	=49	=49	=49	=49	=49	=49	=49	=49	=49	=49
1GM	G:maj	1g_	_	4.a]	_	1c_	_	.	96.523	.	voice
.	.	.	.	2b	_	.	.	.	.	.	.
.	.	.	.	[8cc	_	.	.	.	.	.	.
=50	=50	=50	=50	=50	=50	=50	=50	=50	=50	=50	=50
*>Letter>B	*>Letter>B	*>Letter>B	*>Letter>B	*>Letter>B	*>Letter>B	*>Letter>B	*>Letter>B	*>Letter>B	*>Letter>B	*>Letter>B	*>Letter>B
*>Label>Solo	*>Label>Solo	*>Label>Solo	*>Label>Solo	*>Label>Solo	*>Label>Solo	*>Label>Solo	*>Label>Solo	*>Label>Solo	*>Label>Solo	*>Label>Solo	*>Label>Solo
2CM	C:maj	8g]	_	8cc]	_	8c]	_	.	98.517	newline	steel pans
.	.	8r	.	8r	.	8r	.	.	.	.	.
.	.	4r	.	4r	.	4r	.	.	.	.	.
2FM	F:maj	2r	.	2r	.	2r	.	.	99.516	.	steel pans
=51	=51	=51	=51	=51	=51	=51	=51	=51	=51	=51	=51
2CM	C:maj	1r	.	1r	.	1r	.	.	100.515	.	steel pans
2FM	F:maj	.	.	.	.	.	.	.	101.514	.	steel pans
=52	=52	=52	=52	=52	=52	=52	=52	=52	=52	=52	=52
2CM	C:maj	1r	.	1r	.	1r	.	.	102.512	.	steel pans
2FM	F:maj	.	.	.	.	.	.	.	103.511	.	steel pans
=53	=53	=53	=53	=53	=53	=53	=53	=53	=53	=53	=53
2CM	C:maj	1r	.	1r	.	1r	.	.	104.51	.	steel pans
2FM	F:maj	.	.	.	.	.	.	.	105.509	.	steel pans
=54	=54	=54	=54	=54	=54	=54	=54	=54	=54	=54	=54
2CM	C:maj	1r	.	1r	.	1r	.	.	106.507	newline	steel pans
2FM	F:maj	.	.	.	.	.	.	.	107.517	.	steel pans
=55	=55	=55	=55	=55	=55	=55	=55	=55	=55	=55	=55
2CM	C:maj	1r	.	1r	.	1r	.	.	108.527	.	steel pans
2FM	F:maj	.	.	.	.	.	.	.	109.537	.	steel pans
=56	=56	=56	=56	=56	=56	=56	=56	=56	=56	=56	=56
2CM	C:maj	1r	.	1r	.	1r	.	.	110.548	.	steel pans
2FM	F:maj	.	.	.	.	.	.	.	111.558	.	steel pans
=57	=57	=57	=57	=57	=57	=57	=57	=57	=57	=57	=57
1GM	G:maj	1r	.	1r	.	1r	.	.	112.568	.	steel pans
=58	=58	=58	=58	=58	=58	=58	=58	=58	=58	=58	=58
*>Letter>C	*>Letter>C	*>Letter>C	*>Letter>C	*>Letter>C	*>Letter>C	*>Letter>C	*>Letter>C	*>Letter>C	*>Letter>C	*>Letter>C	*>Letter>C
*>Label>Chorus	*>Label>Chorus	*>Label>Chorus	*>Label>Chorus	*>Label>Chorus	*>Label>Chorus	*>Label>Chorus	*>Label>Chorus	*>Label>Chorus	*>Label>Chorus	*>Label>Chorus	*>Label>Chorus
2CM	C:maj	2a	Hey	2cc	Hey	2c	Hey	B	114.588	newline	voice
2FM	F:maj	8g	Carr-	8cc	Carr-	8d	Carr-	.	115.616	.	voice
.	.	4e	-ie	4g	-ie	4e	-ie	.	.	.	.
.	.	[8d	Anne	[8g	Anne	[8d	Anne	.	.	.	.
=59	=59	=59	=59	=59	=59	=59	=59	=59	=59	=59	=59
1GMm	G:7	8d]	_	8g]	_	8d]	_	.	116.644	.	voice
.	.	4e	_	4a	_	4B	_	.	.	.	.
.	.	8r	.	8r	.	8r	.	.	.	.	.
.	.	8d	what's	8d	what's	8A	what's	.	.	.	.
.	.	4e	your	4e	your	4B	your	.	.	.	.
.	.	16c	game	16g	game	16B	game	B	.	.	.
.	.	16A	_	16f	_	16A	_	.	.	.	.
=60	=60	=60	=60	=60	=60	=60	=60	=60	=60	=60	=60
2CM	C:maj	[16G	_	[16e	_	[16G	_	.	118.7	.	voice
.	.	8G]	_	8e]	_	8G]	_	.	.	.	.
.	.	[8G	now	[8e	now	[8G	now	.	.	.	.
.	.	16G]	_	16e]	_	16G]	_	.	.	.	.
.	.	8G	can	8e	can	8G	can	.	.	.	.
2FM	F:maj	8.A	a-	8.f	a-	8.A	a-	.	119.728	.	voice
.	.	16G	-ny-	16e	-ny-	16G	-ny-	.	.	.	.
.	.	16F	-bo-	16d	-bo-	16B	-bo-	.	.	.	.
.	.	16E	-dy	16c	-dy	16c	-dy	.	.	.	.
.	.	[8G	play	[8g	play	[8B	play	B	.	.	.
=61	=61	=61	=61	=61	=61	=61	=61	=61	=61	=61	=61
1GMm	G:7	2G_	_	2g_	_	2B_	_	.	120.756	.	voice
.	.	4G]	_	4g]	_	4B]	_	.	.	.	.
.	.	4r	.	4r	.	4r	.	.	.	.	.
=62	=62	=62	=62	=62	=62	=62	=62	=62	=62	=62	=62
2CM	C:maj	2g	Hey	2cc	Hey	2c	Hey	B	122.812	newline	voice
2FM	F:maj	8f	Carr-	8cc	Carr-	8d	Carr-	.	123.833	.	voice
.	.	4e	-ie	4g	-ie	4e	-ie	.	.	.	.
.	.	[8d	Anne	[8g	Anne	[8d	Anne	.	.	.	.
=63	=63	=63	=63	=63	=63	=63	=63	=63	=63	=63	=63
1GMm	G:7	8d]	_	8g]	_	8d]	_	.	124.854	.	voice
.	.	4e	_	4a	_	4B	_	.	.	.	.
.	.	8r	.	8r	.	8r	.	.	.	.	.
.	.	8d	what's	8d	what's	8A	what's	.	.	.	.
.	.	4e	your	4e	your	4B	your	.	.	.	.
.	.	16c	game	16g	game	16B	game	B	.	.	.
.	.	16A	_	16f	_	16A	_	.	.	.	.
=64	=64	=64	=64	=64	=64	=64	=64	=64	=64	=64	=64
2CM	C:maj	[16G	_	[16e	_	[16G	_	.	126.897	.	voice
.	.	8G]	_	8e]	_	8G]	_	.	.	.	.
.	.	[8G	now	[8e	now	[8G	now	.	.	.	.
.	.	16G]	_	16e]	_	16G]	_	.	.	.	.
.	.	8G	can	8e	can	8G	can	.	.	.	.
2FM	F:maj	8.A	a-	8.f	a-	8.A	a-	.	127.919	.	voice
.	.	16G	-ny-	16e	-ny-	16G	-ny-	.	.	.	.
.	.	16F	-bo-	16d	-bo-	16B	-bo-	.	.	.	.
.	.	16E	-dy	16c	-dy	16c	-dy	.	.	.	.
.	.	[8G	play	[8g	play	[8B	play	B	.	.	.
=65	=65	=65	=65	=65	=65	=65	=65	=65	=65	=65	=65
1GMm	G:7	2G_	_	2g_	_	2B_	_	.	128.94	.	voice
.	.	4G]	_	4g]	_	4B]	_	.	.	.	.
.	.	4r	.	4r	.	4r	.	.	.	.	.
=66	=66	=66	=66	=66	=66	=66	=66	=66	=66	=66	=66
*>Letter>B	*>Letter>B	*>Letter>B	*>Letter>B	*>Letter>B	*>Letter>B	*>Letter>B	*>Letter>B	*>Letter>B	*>Letter>B	*>Letter>B	*>Letter>B
*>Label>Verse	*>Label>Verse	*>Label>Verse	*>Label>Verse	*>Label>Verse	*>Label>Verse	*>Label>Verse	*>Label>Verse	*>Label>Verse	*>Label>Verse	*>Label>Verse	*>Label>Verse
2CM	C:maj	8g	Peo-	1r	.	1r	.	.	130.983	newline	voice
.	.	8g	-ple	.	.	.	.	.	.	.	.
.	.	8f	live	.	.	.	.	.	.	.	.
.	.	8e	and	.	.	.	.	.	.	.	.
2FM	F:maj	4d	learn	.	.	.	.	A	131.985	.	voice
.	.	4c	but	.	.	.	.	.	.	.	.
=67	=67	=67	=67	=67	=67	=67	=67	=67	=67	=67	=67
2CM	C:maj	4G	you're	1r	.	1r	.	.	132.987	.	voice
.	.	4c	still	.	.	.	.	.	.	.	.
2FM	F:maj	4A	learn-	.	.	.	.	(A	133.988	.	voice
.	.	8c	-ing	.	.	.	.	a)	.	.	.
.	.	8r	.	.	.	.	.	.	.	.	.
=68	=68	=68	=68	=68	=68	=68	=68	=68	=68	=68	=68
2CM	C:maj	4G	you	1r	.	1r	.	.	134.99	.	voice
.	.	8A	use	.	.	.	.	.	.	.	.
.	.	8c	my	.	.	.	.	.	.	.	.
2FM	F:maj	4e	mind	.	.	.	.	.	135.992	.	voice
.	.	8d	and	.	.	.	.	.	.	.	.
.	.	8r	.	.	.	.	.	.	.	.	.
=69	=69	=69	=69	=69	=69	=69	=69	=69	=69	=69	=69
2CM	C:maj	4G	I'll	1r	.	1r	.	.	136.993	.	voice
.	.	8A	be	.	.	.	.	.	.	.	.
.	.	8c	your	.	.	.	.	.	.	.	.
2FM	F:maj	4A	tea-	.	.	.	.	.	137.995	.	voice
.	.	8G	-cher	.	.	.	.	A	.	.	.
.	.	8r	.	.	.	.	.	.	.	.	.
=70	=70	=70	=70	=70	=70	=70	=70	=70	=70	=70	=70
2CM	C:maj	8g	When	1r	.	1r	.	.	138.997	newline	voice
.	.	8g	the	.	.	.	.	.	.	.	.
.	.	8f	les-	.	.	.	.	.	.	.	.
.	.	8e	-son's	.	.	.	.	.	.	.	.
2FM	F:maj	4d	o-	.	.	.	.	.	139.992	.	voice
.	.	4c	-ver	.	.	.	.	A	.	.	.
=71	=71	=71	=71	=71	=71	=71	=71	=71	=71	=71	=71
2CM	C:maj	4G	you'll	1r	.	1r	.	.	140.988	.	voice
.	.	4c	be	.	.	.	.	.	.	.	.
2FM	F:maj	4A	with	.	.	.	.	.	141.984	.	voice
.	.	8c	me	.	.	.	.	.	.	.	.
.	.	8r	.	.	.	.	.	.	.	.	.
=72	=72	=72	=72	=72	=72	=72	=72	=72	=72	=72	=72
2CM	C:maj	8G	then	1r	.	1r	.	.	142.98	.	voice
.	.	8G	I'll	.	.	.	.	.	.	.	.
.	.	8A	hear	.	.	.	.	.	.	.	.
.	.	8c	the	.	.	.	.	.	.	.	.
2FM	F:maj	4e	o-	.	.	.	.	.	143.975	.	voice
.	.	4d	-ther	.	.	.	.	A	.	.	.
=73	=73	=73	=73	=73	=73	=73	=73	=73	=73	=73	=73
1GM	G:maj	4c	peo-	1r	.	1r	.	.	144.971	.	voice
.	.	4B	-ple	.	.	.	.	.	.	.	.
.	.	16A	say-	.	.	.	.	B	.	.	.
.	.	8.G	_	.	.	.	.	.	.	.	.
.	.	4G	-ing	.	.	.	.	.	.	.	.
=74	=74	=74	=74	=74	=74	=74	=74	=74	=74	=74	=74
*>Letter>C	*>Letter>C	*>Letter>C	*>Letter>C	*>Letter>C	*>Letter>C	*>Letter>C	*>Letter>C	*>Letter>C	*>Letter>C	*>Letter>C	*>Letter>C
*>Label>Chorus	*>Label>Chorus	*>Label>Chorus	*>Label>Chorus	*>Label>Chorus	*>Label>Chorus	*>Label>Chorus	*>Label>Chorus	*>Label>Chorus	*>Label>Chorus	*>Label>Chorus	*>Label>Chorus
2CM	C:maj	2g	Hey	2cc	Hey	2c	Hey	B	146.962	newline	voice
2FM	F:maj	8f	Carr-	8cc	Carr-	8d	Carr-	.	147.971	.	voice
.	.	4e	-ie	4g	-ie	4e	-ie	.	.	.	.
.	.	[8d	Anne	[8g	Anne	[8d	Anne	.	.	.	.
=75	=75	=75	=75	=75	=75	=75	=75	=75	=75	=75	=75
1GMm	G:7	8d]	_	8g]	_	8d]	_	.	148.98	.	voice
.	.	4e	_	4a	_	4B	_	.	.	.	.
.	.	8r	.	8r	.	8r	.	.	.	.	.
.	.	8d	what's	8d	what's	8A	what's	.	.	.	.
.	.	4e	your	4e	your	4B	your	.	.	.	.
.	.	16c	game	16g	game	16B	game	B	.	.	.
.	.	16A	_	16f	_	16A	_	.	.	.	.
=76	=76	=76	=76	=76	=76	=76	=76	=76	=76	=76	=76
2CM	C:maj	[16G	_	[16e	_	[16G	_	.	150.999	.	voice
.	.	8G]	_	8e]	_	8G]	_	.	.	.	.
.	.	[8G	now	[8e	now	[8G	now	.	.	.	.
.	.	16G]	_	16e]	_	16G]	_	.	.	.	.
.	.	8G	can	8e	can	8G	can	.	.	.	.
2FM	F:maj	8.A	a-	8.f	a-	8.A	a-	.	152.008	.	voice
.	.	16G	-ny-	16e	-ny-	16G	-ny-	.	.	.	.
.	.	16F	-bo-	16d	-bo-	16B	-bo-	.	.	.	.
.	.	16E	-dy	16c	-dy	16c	-dy	.	.	.	.
.	.	[8G	play	[8g	play	[8B	play	B	.	.	.
=77	=77	=77	=77	=77	=77	=77	=77	=77	=77	=77	=77
1GMm	G:7	2G_	_	2g_	_	2B_	_	.	153.017	.	voice
.	.	4G]	_	4g]	_	4B]	_	.	.	.	.
.	.	4r	.	4r	.	4r	.	.	.	.	.
=78	=78	=78	=78	=78	=78	=78	=78	=78	=78	=78	=78
2CM	C:maj	2g	Hey	2cc	Hey	2c	Hey	B	155.035	newline	voice
2FM	F:maj	8f	Carr-	8cc	Carr-	8d	Carr-	.	156.044	.	voice
.	.	4e	-ie	4g	-ie	4e	-ie	.	.	.	.
.	.	[8d	Anne	[8g	Anne	[8d	Anne	.	.	.	.
=79	=79	=79	=79	=79	=79	=79	=79	=79	=79	=79	=79
1GMm	G:7	8d]	_	8g]	_	8d]	_	.	157.053	.	voice
.	.	4e	_	4a	_	4B	_	.	.	.	.
.	.	8r	.	8r	.	8r	.	.	.	.	.
.	.	8d	what's	8d	what's	8A	what's	.	.	.	.
.	.	4e	your	4e	your	4B	your	.	.	.	.
.	.	16c	game	16g	game	16B	game	B	.	.	.
.	.	16A	_	16f	_	16A	_	.	.	.	.
=80	=80	=80	=80	=80	=80	=80	=80	=80	=80	=80	=80
2CM	C:maj	[16G	_	[16e	_	[16G	_	.	159.071	.	voice
.	.	8G]	_	8e]	_	8G]	_	.	.	.	.
.	.	[8G	now	[8e	now	[8G	now	.	.	.	.
.	.	16G]	_	16e]	_	16G]	_	.	.	.	.
.	.	8G	can	8e	can	8G	can	.	.	.	.
2FM	F:maj	8.A	a-	8.f	a-	8.A	a-	.	160.08	.	voice
.	.	16G	-ny-	16e	-ny-	16G	-ny-	.	.	.	.
.	.	16F	-bo-	16d	-bo-	16B	-bo-	.	.	.	.
.	.	16E	-dy	16c	-dy	16c	-dy	.	.	.	.
.	.	[8G	play	[8g	play	[8B	play	B	.	.	.
=81	=81	=81	=81	=81	=81	=81	=81	=81	=81	=81	=81
1GMm	G:7	1G]	_	1g]	_	1B]	_	.	161.089	.	voice
=82	=82	=82	=82	=82	=82	=82	=82	=82	=82	=82	=82
*>Letter>E	*>Letter>E	*>Letter>E	*>Letter>E	*>Letter>E	*>Letter>E	*>Letter>E	*>Letter>E	*>Letter>E	*>Letter>E	*>Letter>E	*>Letter>E
*>Label>Outro	*>Label>Outro	*>Label>Outro	*>Label>Outro	*>Label>Outro	*>Label>Outro	*>Label>Outro	*>Label>Outro	*>Label>Outro	*>Label>Outro	*>Label>Outro	*>Label>Outro
1FM	F:maj	4r	.	2r	.	2r	.	.	163.108	newline	voice
.	.	2r	.	.	.	.	.	.	.	.	.
.	.	.	.	4r	.	4r	.	.	.	.	.
.	.	8c	Carr-	4r	.	4r	.	.	.	.	.
.	.	8c	-ie	.	.	.	.	.	.	.	.
=83	=83	=83	=83	=83	=83	=83	=83	=83	=83	=83	=83
1CM	C:maj/3	1c	Anne	4r	.	4r	.	.	165.129	.	voice
.	.	.	.	8g	Carr-	8e	Carr-	.	.	.	.
.	.	.	.	8g	-ie	8e	-ie	.	.	.	.
.	.	.	.	[2g	Anne	4e	Anne	.	.	.	.
.	.	.	.	.	.	[4g	_	.	.	.	.
=84	=84	=84	=84	=84	=84	=84	=84	=84	=84	=84	=84
1GMm	G:7/5	1d	_	4g]	_	1g_	_	.	167.15	.	voice
.	.	.	.	8cc	Carr-	.	.	.	.	.	.
.	.	.	.	8cc	-ie	.	.	.	.	.	.
.	.	.	.	8b	Anne	.	.	.	.	.	.
.	.	.	.	8a	_	.	.	.	.	.	.
.	.	.	.	4b	_	.	.	.	.	.	.
=85	=85	=85	=85	=85	=85	=85	=85	=85	=85	=85	=85
1CM	C:maj	1c	_	1cc	_	1g]	_	.	169.171	.	voice
1r;	1r	r;	.	r;	.	r;	.	.	172.456	.	r
1r;	1r	r;	.	r;	.	r;	.	.	175.384	.	r
*-	*-	*-	*-	*-	*-	*-	*-	*-	*-	*-	*-
!!!BillboardChartDate: 1967/08/26
!!!BillboardPeak: 9
!!!BillboardWeeksOnChart: 13
!!!COC: The Hollies
!!!ENC: Nathaniel Condit-Schultz
!!!EST: Awating manual error checking and editing.
!!!OTL: Carrie-Anne
!!!RDF**chordsym: original McGill chord annotation + (implied pitch class set, with bass pitch in first position)
!!!RDF**harmony: **recip + pitch class of root + harmonic quality
!!!RDF**leadinstrument: original McGill primary instrumentation annotation
!!!RDF**phrase: newline = linebreak in original McGill transcription
!!!RDF**timestamp: McGill audio timestamp in seconds
!!!RDT: 2017/01/12/
!!!SampleActualRank: 18
!!!SampleID#: 0477
!!!SampleTargetRank: 18
!!!MBID: 74f1d460-3930-4a1c-9cdf-73a0aea65075
